docs/assets/images/browser_title.svg

<svg width="57" height="12" viewBox="0 0 57 12" fill="none" xmlns="http://www.w3.org/2000/svg">
<path d="M9.15771 4.91972H9.59521C9.71125 4.91972 9.82253 4.96934 9.90457 5.05766C9.98662 5.14598 10.0327 5.26577 10.0327 5.39067V10.1002C10.0327 10.2251 9.98662 10.3449 9.90457 10.4332C9.82253 10.5215 9.71125 10.5711 9.59521 10.5711H2.59521C2.47918 10.5711 2.3679 10.5215 2.28586 10.4332C2.20381 10.3449 2.15771 10.2251 2.15771 10.1002V5.39067C2.15771 5.26577 2.20381 5.14598 2.28586 5.05766C2.3679 4.96934 2.47918 4.91972 2.59521 4.91972H3.03271V4.44877C3.03271 4.01584 3.11193 3.58716 3.26583 3.18719C3.41974 2.78722 3.64532 2.42379 3.9297 2.11767C4.21408 1.81155 4.55169 1.56872 4.92325 1.40304C5.29481 1.23737 5.69304 1.1521 6.09521 1.1521C6.49739 1.1521 6.89562 1.23737 7.26718 1.40304C7.63874 1.56872 7.97635 1.81155 8.26073 2.11767C8.54511 2.42379 8.77069 2.78722 8.9246 3.18719C9.0785 3.58716 9.15771 4.01584 9.15771 4.44877V4.91972ZM8.28271 4.91972V4.44877C8.28271 3.82424 8.05225 3.2253 7.64201 2.7837C7.23177 2.34209 6.67538 2.094 6.09521 2.094C5.51505 2.094 4.95865 2.34209 4.54842 2.7837C4.13818 3.2253 3.90771 3.82424 3.90771 4.44877V4.91972H8.28271ZM5.65771 6.80353V8.68734H6.53271V6.80353H5.65771Z" fill="white"/>
<path d="M15.3452 9.35394V2.08122H16.1833V4.76587H16.2543C16.3159 4.67118 16.4011 4.55044 16.51 4.40366C16.6213 4.25451 16.7799 4.12194 16.9858 4.00593C17.1942 3.88756 17.4759 3.82837 17.831 3.82837C18.2903 3.82837 18.6951 3.94319 19.0455 4.17283C19.3959 4.40248 19.6693 4.728 19.8658 5.1494C20.0623 5.5708 20.1606 6.06796 20.1606 6.64087C20.1606 7.21853 20.0623 7.71924 19.8658 8.14301C19.6693 8.56441 19.3971 8.89111 19.049 9.12312C18.701 9.35276 18.2998 9.46758 17.8452 9.46758C17.4948 9.46758 17.2143 9.40958 17.0036 9.29357C16.7929 9.1752 16.6307 9.04144 16.5171 8.89229C16.4035 8.74078 16.3159 8.61531 16.2543 8.51587H16.1549V9.35394H15.3452ZM16.1691 6.62667C16.1691 7.0386 16.2294 7.402 16.3502 7.71687C16.4709 8.02937 16.6473 8.2744 16.8793 8.45195C17.1113 8.62714 17.3954 8.71474 17.7316 8.71474C18.082 8.71474 18.3743 8.62241 18.6087 8.43775C18.8455 8.25072 19.023 7.99978 19.1414 7.68491C19.2621 7.36767 19.3225 7.01493 19.3225 6.62667C19.3225 6.24315 19.2633 5.8975 19.1449 5.58974C19.0289 5.27961 18.8526 5.03458 18.6158 4.85465C18.3814 4.67236 18.0867 4.58122 17.7316 4.58122C17.3907 4.58122 17.1042 4.66763 16.8722 4.84045C16.6402 5.0109 16.465 5.25001 16.3466 5.55778C16.2283 5.86318 16.1691 6.21947 16.1691 6.62667Z" fill="white"/>
<path d="M21.4425 9.35394V3.8994H22.2806V9.35394H21.4425ZM21.8687 2.99031C21.7053 2.99031 21.5644 2.93467 21.4461 2.8234C21.3301 2.71213 21.2721 2.57837 21.2721 2.42212C21.2721 2.26587 21.3301 2.13212 21.4461 2.02085C21.5644 1.90958 21.7053 1.85394 21.8687 1.85394C22.032 1.85394 22.1717 1.90958 22.2877 2.02085C22.4061 2.13212 22.4652 2.26587 22.4652 2.42212C22.4652 2.57837 22.4061 2.71213 22.2877 2.8234C22.1717 2.93467 22.032 2.99031 21.8687 2.99031Z" fill="white"/>
<path d="M24.6536 2.08122V9.35394H23.8156V2.08122H24.6536Z" fill="white"/>
<path d="M27.0267 2.08122V9.35394H26.1886V2.08122H27.0267Z" fill="white"/>
<path d="M28.5617 9.35394V3.8994H29.3997V9.35394H28.5617ZM28.9878 2.99031C28.8244 2.99031 28.6836 2.93467 28.5652 2.8234C28.4492 2.71213 28.3912 2.57837 28.3912 2.42212C28.3912 2.26587 28.4492 2.13212 28.5652 2.02085C28.6836 1.90958 28.8244 1.85394 28.9878 1.85394C29.1511 1.85394 29.2908 1.90958 29.4068 2.02085C29.5252 2.13212 29.5844 2.26587 29.5844 2.42212C29.5844 2.57837 29.5252 2.71213 29.4068 2.8234C29.2908 2.93467 29.1511 2.99031 28.9878 2.99031Z" fill="white"/>
<path d="M31.7728 6.07269V9.35394H30.9347V3.8994H31.7444V4.75167H31.8154C31.9432 4.47468 32.1374 4.25214 32.3978 4.08406C32.6582 3.9136 32.9944 3.82837 33.4063 3.82837C33.7756 3.82837 34.0988 3.90413 34.3758 4.05565C34.6527 4.2048 34.8682 4.43207 35.0221 4.73747C35.1759 5.0405 35.2529 5.42402 35.2529 5.88803V9.35394H34.4148V5.94485C34.4148 5.51635 34.3035 5.18254 34.081 4.94343C33.8585 4.70195 33.5531 4.58122 33.1648 4.58122C32.8973 4.58122 32.6582 4.63922 32.4475 4.75522C32.2392 4.87122 32.0746 5.0405 31.9539 5.26303C31.8331 5.48557 31.7728 5.75546 31.7728 6.07269Z" fill="white"/>
<path d="M38.986 11.513C38.5812 11.513 38.2332 11.461 37.942 11.3568C37.6508 11.255 37.4081 11.12 37.214 10.952C37.0222 10.7862 36.8695 10.6087 36.7559 10.4193L37.4235 9.95053C37.4993 10.05 37.5952 10.1636 37.7112 10.2914C37.8272 10.4217 37.9858 10.5341 38.187 10.6288C38.3906 10.7259 38.6569 10.7744 38.986 10.7744C39.4264 10.7744 39.7898 10.6679 40.0762 10.4548C40.3627 10.2417 40.5059 9.90792 40.5059 9.45337V8.34542H40.4349C40.3733 8.44485 40.2857 8.56796 40.1721 8.71474C40.0608 8.85915 39.8998 8.98818 39.6891 9.10181C39.4808 9.21308 39.1991 9.26872 38.844 9.26872C38.4036 9.26872 38.0083 9.16455 37.6579 8.95622C37.3099 8.74788 37.0341 8.44485 36.8305 8.04712C36.6292 7.6494 36.5286 7.16644 36.5286 6.59826C36.5286 6.03955 36.6269 5.55304 36.8234 5.13874C37.0199 4.72208 37.2933 4.40011 37.6437 4.17283C37.9941 3.94319 38.3989 3.82837 38.8582 3.82837C39.2133 3.82837 39.495 3.88756 39.7033 4.00593C39.914 4.12194 40.075 4.25451 40.1863 4.40366C40.2999 4.55044 40.3875 4.67118 40.4491 4.76587H40.5343V3.8994H41.344V9.51019C41.344 9.97894 41.2374 10.3601 41.0244 10.6537C40.8137 10.9496 40.5296 11.1662 40.1721 11.3035C39.817 11.4432 39.4216 11.513 38.986 11.513ZM38.9576 8.51587C39.2938 8.51587 39.5779 8.43893 39.8099 8.28505C40.0419 8.13117 40.2183 7.90981 40.339 7.62099C40.4597 7.33216 40.5201 6.98652 40.5201 6.58406C40.5201 6.19106 40.4609 5.84424 40.3426 5.54357C40.2242 5.24291 40.049 5.00735 39.817 4.8369C39.585 4.66644 39.2985 4.58122 38.9576 4.58122C38.6025 4.58122 38.3066 4.67118 38.0698 4.8511C37.8354 5.03103 37.6591 5.2725 37.5407 5.57553C37.4247 5.87856 37.3667 6.21474 37.3667 6.58406C37.3667 6.96284 37.4259 7.29784 37.5443 7.58903C37.665 7.87785 37.8426 8.10513 38.0769 8.27085C38.3137 8.4342 38.6072 8.51587 38.9576 8.51587Z" fill="white"/>
<path d="M43.4889 9.41076C43.3137 9.41076 43.1633 9.34802 43.0379 9.22255C42.9124 9.09708 42.8497 8.94675 42.8497 8.77156C42.8497 8.59637 42.9124 8.44604 43.0379 8.32056C43.1633 8.19509 43.3137 8.13235 43.4889 8.13235C43.664 8.13235 43.8144 8.19509 43.9399 8.32056C44.0653 8.44604 44.1281 8.59637 44.1281 8.77156C44.1281 8.88756 44.0985 8.99409 44.0393 9.09116C43.9825 9.18822 43.9055 9.26635 43.8085 9.32553C43.7138 9.38235 43.6072 9.41076 43.4889 9.41076Z" fill="white"/>
<path d="M47.8337 11.513C47.4288 11.513 47.0808 11.461 46.7896 11.3568C46.4984 11.255 46.2558 11.12 46.0617 10.952C45.8699 10.7862 45.7172 10.6087 45.6036 10.4193L46.2712 9.95053C46.3469 10.05 46.4428 10.1636 46.5588 10.2914C46.6748 10.4217 46.8334 10.5341 47.0347 10.6288C47.2383 10.7259 47.5046 10.7744 47.8337 10.7744C48.274 10.7744 48.6374 10.6679 48.9239 10.4548C49.2103 10.2417 49.3536 9.90792 49.3536 9.45337V8.34542H49.2825C49.221 8.44485 49.1334 8.56796 49.0198 8.71474C48.9085 8.85915 48.7475 8.98818 48.5368 9.10181C48.3285 9.21308 48.0467 9.26872 47.6916 9.26872C47.2513 9.26872 46.8559 9.16455 46.5055 8.95622C46.1575 8.74788 45.8817 8.44485 45.6781 8.04712C45.4769 7.6494 45.3763 7.16644 45.3763 6.59826C45.3763 6.03955 45.4745 5.55304 45.671 5.13874C45.8675 4.72208 46.141 4.40011 46.4913 4.17283C46.8417 3.94319 47.2466 3.82837 47.7058 3.82837C48.0609 3.82837 48.3427 3.88756 48.551 4.00593C48.7617 4.12194 48.9227 4.25451 49.034 4.40366C49.1476 4.55044 49.2352 4.67118 49.2967 4.76587H49.382V3.8994H50.1916V9.51019C50.1916 9.97894 50.0851 10.3601 49.872 10.6537C49.6613 10.9496 49.3772 11.1662 49.0198 11.3035C48.6646 11.4432 48.2693 11.513 47.8337 11.513ZM47.8053 8.51587C48.1414 8.51587 48.4255 8.43893 48.6575 8.28505C48.8895 8.13117 49.0659 7.90981 49.1867 7.62099C49.3074 7.33216 49.3678 6.98652 49.3678 6.58406C49.3678 6.19106 49.3086 5.84424 49.1902 5.54357C49.0718 5.24291 48.8966 5.00735 48.6646 4.8369C48.4326 4.66644 48.1462 4.58122 47.8053 4.58122C47.4502 4.58122 47.1542 4.67118 46.9175 4.8511C46.6831 5.03103 46.5067 5.2725 46.3884 5.57553C46.2724 5.87856 46.2144 6.21474 46.2144 6.58406C46.2144 6.96284 46.2735 7.29784 46.3919 7.58903C46.5127 7.87785 46.6902 8.10513 46.9246 8.27085C47.1613 8.4342 47.4549 8.51587 47.8053 8.51587Z" fill="white"/>
<path d="M53.9274 11.513C53.5226 11.513 53.1746 11.461 52.8834 11.3568C52.5922 11.255 52.3495 11.12 52.1554 10.952C51.9636 10.7862 51.8109 10.6087 51.6973 10.4193L52.3649 9.95053C52.4407 10.05 52.5366 10.1636 52.6526 10.2914C52.7686 10.4217 52.9272 10.5341 53.1284 10.6288C53.332 10.7259 53.5984 10.7744 53.9274 10.7744C54.3678 10.7744 54.7312 10.6679 55.0176 10.4548C55.3041 10.2417 55.4473 9.90792 55.4473 9.45337V8.34542H55.3763C55.3147 8.44485 55.2271 8.56796 55.1135 8.71474C55.0022 8.85915 54.8413 8.98818 54.6306 9.10181C54.4222 9.21308 54.1405 9.26872 53.7854 9.26872C53.345 9.26872 52.9497 9.16455 52.5993 8.95622C52.2513 8.74788 51.9755 8.44485 51.7719 8.04712C51.5707 7.6494 51.47 7.16644 51.47 6.59826C51.47 6.03955 51.5683 5.55304 51.7648 5.13874C51.9613 4.72208 52.2347 4.40011 52.5851 4.17283C52.9355 3.94319 53.3403 3.82837 53.7996 3.82837C54.1547 3.82837 54.4364 3.88756 54.6448 4.00593C54.8555 4.12194 55.0164 4.25451 55.1277 4.40366C55.2413 4.55044 55.3289 4.67118 55.3905 4.76587H55.4757V3.8994H56.2854V9.51019C56.2854 9.97894 56.1788 10.3601 55.9658 10.6537C55.7551 10.9496 55.471 11.1662 55.1135 11.3035C54.7584 11.4432 54.363 11.513 53.9274 11.513ZM53.899 8.51587C54.2352 8.51587 54.5193 8.43893 54.7513 8.28505C54.9833 8.13117 55.1597 7.90981 55.2804 7.62099C55.4011 7.33216 55.4615 6.98652 55.4615 6.58406C55.4615 6.19106 55.4023 5.84424 55.284 5.54357C55.1656 5.24291 54.9904 5.00735 54.7584 4.8369C54.5264 4.66644 54.2399 4.58122 53.899 4.58122C53.5439 4.58122 53.248 4.67118 53.0112 4.8511C52.7769 5.03103 52.6005 5.2725 52.4821 5.57553C52.3661 5.87856 52.3081 6.21474 52.3081 6.58406C52.3081 6.96284 52.3673 7.29784 52.4857 7.58903C52.6064 7.87785 52.784 8.10513 53.0183 8.27085C53.2551 8.4342 53.5486 8.51587 53.899 8.51587Z" fill="white"/>
</svg>

<svg xmlns="http://www.w3.org/2000/svg" fill="none" viewBox="0 0 57 12"><path fill="#fff" d="M9.158 4.92h.437c.116 0 .228.05.31.138a.49.49 0 0 1 .128.333v4.71a.49.49 0 0 1-.128.332.422.422 0 0 1-.31.138h-7a.422.422 0 0 1-.31-.138.49.49 0 0 1-.127-.333V5.39a.49.49 0 0 1 .128-.332.422.422 0 0 1 .31-.138h.437v-.471c0-.433.079-.862.233-1.262.154-.4.38-.763.664-1.07.284-.305.622-.548.993-.714a2.875 2.875 0 0 1 2.344 0c.372.166.71.409.994.715.284.306.51.67.664 1.07.153.4.233.828.233 1.26v.472zm-.875 0v-.471a2.45 2.45 0 0 0-.641-1.665 2.112 2.112 0 0 0-1.547-.69c-.58 0-1.136.248-1.547.69a2.45 2.45 0 0 0-.64 1.665v.47h4.375zM5.658 6.804v1.883h.875V6.804h-.875zM15.345 9.354V2.08h.838v2.685h.071c.062-.095.147-.216.256-.362a1.5 1.5 0 0 1 .476-.398c.208-.118.49-.178.845-.178.46 0 .864.115 1.215.345.35.23.623.555.82.976.196.422.295.919.295 1.492 0 .578-.099 1.078-.295 1.502a2.325 2.325 0 0 1-.817.98c-.348.23-.75.345-1.204.345-.35 0-.63-.058-.841-.174a1.56 1.56 0 0 1-.487-.402 5.401 5.401 0 0 1-.263-.376h-.1v.838h-.809zm.824-2.727c0 .412.06.775.181 1.09.12.312.297.557.53.735.231.175.515.263.852.263.35 0 .642-.093.877-.277.236-.187.414-.438.532-.753.121-.317.182-.67.182-1.058 0-.384-.06-.73-.178-1.037a1.602 1.602 0 0 0-.53-.735c-.234-.183-.528-.274-.883-.274-.341 0-.628.087-.86.26-.232.17-.407.409-.525.717a2.95 2.95 0 0 0-.178 1.069zM21.442 9.354V3.899h.839v5.455h-.838zm.427-6.364a.596.596 0 0 1-.423-.167.536.536 0 0 1-.174-.4c0-.157.058-.29.174-.402a.596.596 0 0 1 .423-.167c.163 0 .303.056.419.167a.531.531 0 0 1 .177.401c0 .156-.059.29-.177.401a.584.584 0 0 1-.42.167zM24.654 2.081v7.273h-.838V2.08h.838zM27.027 2.081v7.273h-.838V2.08h.838zM28.562 9.354V3.899h.838v5.455h-.838zm.426-6.364a.596.596 0 0 1-.423-.167.536.536 0 0 1-.174-.4c0-.157.058-.29.174-.402a.596.596 0 0 1 .423-.167c.163 0 .303.056.419.167a.531.531 0 0 1 .177.401c0 .156-.059.29-.177.401a.584.584 0 0 1-.42.167zM31.773 6.073v3.28h-.838V3.9h.81v.853h.07c.128-.277.322-.5.583-.668.26-.17.596-.256 1.008-.256.37 0 .693.076.97.228.277.149.492.376.646.681.154.303.23.687.23 1.151v3.466h-.837v-3.41c0-.428-.111-.761-.334-1-.223-.242-.528-.363-.916-.363-.268 0-.507.058-.718.174a1.245 1.245 0 0 0-.493.508c-.12.223-.181.492-.181.81zM38.986 11.513c-.405 0-.753-.052-1.044-.156a2.217 2.217 0 0 1-.728-.405 2.215 2.215 0 0 1-.458-.533l.667-.468c.076.099.172.213.288.34.116.13.275.243.476.338.204.097.47.145.799.145.44 0 .804-.106 1.09-.32.287-.212.43-.546.43-1V8.344h-.071c-.062.1-.15.223-.263.37a1.49 1.49 0 0 1-.483.387c-.208.111-.49.167-.845.167-.44 0-.836-.104-1.186-.313a2.193 2.193 0 0 1-.828-.909c-.2-.398-.301-.88-.301-1.449 0-.558.098-1.045.294-1.46.197-.416.47-.738.82-.965.351-.23.756-.345 1.215-.345.355 0 .637.06.845.178.211.116.372.249.483.398.114.146.202.267.263.362h.085v-.867h.81V9.51c0 .469-.107.85-.32 1.144a1.82 1.82 0 0 1-.852.65c-.355.14-.75.209-1.186.209zm-.028-2.997c.336 0 .62-.077.852-.23.232-.155.408-.376.529-.665.12-.289.181-.634.181-1.037 0-.393-.06-.74-.177-1.04a1.561 1.561 0 0 0-.526-.707c-.232-.17-.519-.256-.86-.256-.355 0-.65.09-.887.27-.235.18-.41.421-.53.725a2.8 2.8 0 0 0-.173 1.008c0 .379.059.714.177 1.005.121.289.299.516.533.682.237.163.53.245.88.245zM43.489 9.41a.615.615 0 0 1-.451-.187.615.615 0 0 1-.188-.451c0-.176.062-.326.188-.451a.615.615 0 0 1 .45-.189c.176 0 .326.063.452.189a.616.616 0 0 1 .188.45.663.663 0 0 1-.32.554.61.61 0 0 1-.32.086zM47.834 11.513c-.405 0-.753-.052-1.044-.156a2.216 2.216 0 0 1-.728-.405 2.215 2.215 0 0 1-.458-.533l.667-.468c.076.099.172.213.288.34.116.13.274.243.476.338.203.097.47.145.799.145.44 0 .803-.106 1.09-.32.286-.212.43-.546.43-1V8.344h-.072c-.061.1-.149.223-.262.37a1.49 1.49 0 0 1-.483.387c-.209.111-.49.167-.845.167-.44 0-.836-.104-1.187-.313a2.193 2.193 0 0 1-.827-.909c-.201-.398-.302-.88-.302-1.449 0-.558.099-1.045.295-1.46.197-.416.47-.738.82-.965.35-.23.756-.345 1.215-.345.355 0 .637.06.845.178.21.116.372.249.483.398.114.146.201.267.263.362h.085v-.867h.81V9.51c0 .469-.107.85-.32 1.144a1.82 1.82 0 0 1-.852.65c-.355.14-.75.209-1.186.209zm-.029-2.997c.336 0 .62-.077.852-.23.233-.155.409-.376.53-.665.12-.289.18-.634.18-1.037 0-.393-.058-.74-.177-1.04a1.561 1.561 0 0 0-.525-.707c-.232-.17-.519-.256-.86-.256-.355 0-.65.09-.888.27-.234.18-.41.421-.529.725a2.8 2.8 0 0 0-.174 1.008c0 .379.06.714.178 1.005.12.289.298.516.533.682.236.163.53.245.88.245zM53.927 11.513c-.404 0-.752-.052-1.044-.156a2.217 2.217 0 0 1-.728-.405 2.215 2.215 0 0 1-.458-.533l.668-.468c.076.099.172.213.288.34.116.13.274.243.475.338.204.097.47.145.8.145.44 0 .803-.106 1.09-.32.286-.212.43-.546.43-1V8.344h-.072c-.061.1-.149.223-.262.37a1.49 1.49 0 0 1-.483.387c-.209.111-.49.167-.846.167-.44 0-.835-.104-1.186-.313a2.193 2.193 0 0 1-.827-.909c-.201-.398-.302-.88-.302-1.449 0-.558.098-1.045.295-1.46.196-.416.47-.738.82-.965.35-.23.755-.345 1.215-.345.355 0 .636.06.845.178.21.116.371.249.483.398.113.146.2.267.263.362h.085v-.867h.81V9.51c0 .469-.107.85-.32 1.144a1.82 1.82 0 0 1-.852.65c-.356.14-.751.209-1.187.209zM53.9 8.516c.336 0 .62-.077.852-.23.232-.155.409-.376.53-.665.12-.289.18-.634.18-1.037 0-.393-.059-.74-.177-1.04a1.561 1.561 0 0 0-.526-.707c-.232-.17-.518-.256-.859-.256-.355 0-.651.09-.888.27-.234.18-.41.421-.529.725a2.8 2.8 0 0 0-.174 1.008c0 .379.06.714.178 1.005.12.289.298.516.532.682.237.163.53.245.881.245z"/></svg>
